packages/dnb-ui-lib/assets/icons/view_off.svg

<svg width="16" height="16" viewBox="0 0 16 16" fill="none" xmlns="http://www.w3.org/2000/svg">
<path d="M2.05921 13.8001L14.1427 2.19992M6.04254 12.544C6.67592 12.7407 7.3359 12.8383 7.9991 12.8334C10.6414 12.8778 13.321 11.0205 14.9746 9.2006C15.3419 8.79292 15.3419 8.17373 14.9746 7.76605C14.3756 7.10884 13.7119 6.51359 12.9936 5.98929M9.5541 4.31502C9.04559 4.18848 8.52301 4.12741 7.99903 4.13328C5.40125 4.0901 2.71452 5.90681 1.02541 7.76477C0.658195 8.17245 0.658195 8.79164 1.02541 9.19932C1.53899 9.76154 2.09955 10.279 2.70099 10.746M5.1 8.7727C5.09983 8.1317 5.35439 7.5169 5.80764 7.06365C6.2609 6.61039 6.8757 6.35583 7.5167 6.356M10.29 8.32931C10.2902 8.97031 10.0356 9.5851 9.58235 10.0384C9.1291 10.4916 8.5143 10.7462 7.8733 10.746" stroke="black" stroke-width="1.2" stroke-linecap="round" stroke-linejoin="round"/>
</svg>

<svg width="16" height="16" viewBox="0 0 16 16" fill="none" xmlns="http://www.w3.org/2000/svg"><path d="M2.06 13.8L14.142 2.2m-8.1 10.344a6.437 6.437 0 001.956.29c2.642.044 5.322-1.813 6.976-3.633a1.072 1.072 0 000-1.435 13.25 13.25 0 00-1.981-1.777m-3.44-1.674A6.154 6.154 0 008 4.133C5.401 4.09 2.715 5.907 1.025 7.765a1.072 1.072 0 000 1.434c.514.563 1.075 1.08 1.676 1.547M5.1 8.773a2.416 2.416 0 012.417-2.417m2.773 1.973a2.416 2.416 0 01-2.417 2.417" stroke="#000" stroke-width="1.2" stroke-linecap="round" stroke-linejoin="round"/></svg>
